X:29
T:Kermisdans van Rupelmonde
O:vlaanderen
C:Hullebroeck
Z:Bart Vanhaverbeke 
P:ABB x3 B
L:1/8
M:6/8
K:F
P:Voorspel
d | "B"d2 G "C7"G2 c | "F" c2 F "Dm"F2 F | "Gm" B2 B A>GF | "C7" (G6 |"F"F2) z z2 |]
P:A
C | "F"A2 A "Dm" F2 F | "Gm"B2 B "C7"G2 G | "F" A2 A "B" B2 d | "B" d3 "F" c z d |
